X: 14192
T: Frost Is All Over, The
R: jig
M: 6/8
K: Dmajor
|:def edB|AFD E2D|DFA AFA|Bee edB|
def edc|AFD E2D|DFA AFA|1 Bdd d2A:|2 Bdd d2e||
f3 afd|g3 bag|f3 afd|gfg efg|
f3 afd|g3 bag|f3 ede|fdc d2e|
f3 afd|g3 bag|f3 afd|gfg e2d|
def edc|AFD E2D|DFA AFA|Bdd d2A||

